dist/svgs/devui-icons/op/save.svg

<?xml version="1.0" encoding="UTF-8"?>
<svg width="16px" height="16px" viewBox="0 0 16 16" version="1.1" xmlns="http://www.w3.org/2000/svg" xmlns:xlink="http://www.w3.org/1999/xlink">
    <title>操作/save</title>
    <desc>Created with Sketch.</desc>
    <g id="操作/save" stroke="none" stroke-width="1" fill="none" fill-rule="evenodd">
        <g id="save" fill-rule="nonzero">
            <path d="M5,1 L10,1 L10,5 L11,5 L11,1 L15,4 L15,13 C15,14.1045695 14.1045695,15 13,15 L3,15 C1.8954305,15 1,14.1045695 1,13 L1,3 C1,1.8954305 1.8954305,1 3,1 L4,1 L4,5 L5,5 L5,1 Z M4,5 L4,6 L11,6 L11,5 L4,5 Z M6,2 L6,4 L7,4 L7,2 L6,2 Z M7.5,13 C8.88071187,13 10,11.8807119 10,10.5 C10,9.11928813 8.88071187,8 7.5,8 C6.11928813,8 5,9.11928813 5,10.5 C5,11.8807119 6.11928813,13 7.5,13 Z" id="形状" fill="#293040"></path>
        </g>
    </g>
</svg>

<svg xmlns="http://www.w3.org/2000/svg" viewBox="0 0 16 16"><path d="M5 1h5v4h1V1l4 3v9a2 2 0 01-2 2H3a2 2 0 01-2-2V3a2 2 0 012-2h1v4h1V1zM4 5v1h7V5H4zm2-3v2h1V2H6zm1.5 11a2.5 2.5 0 100-5 2.5 2.5 0 000 5z"/></svg>
